assets/Fallen leaf/Flat/fallen_leaf_flat.svg

<svg width="32" height="32" viewBox="0 0 32 32" fill="none" xmlns="http://www.w3.org/2000/svg">
<path d="M27.9105 8.01001C20.7805 8.01001 15.0005 13.79 14.9405 20.67L15.0005 29.24C15.0005 29.67 15.3705 30.01 15.7905 29.98C23.7105 29.57 30.0005 23.03 30.0005 15.01V8.01001H27.9105Z" fill="#F8312F"/>
<path d="M19.0605 24.92C18.9105 24.92 18.7605 24.87 18.6305 24.78C18.2905 24.54 18.2105 24.07 18.4505 23.73L27.8705 10.52C28.2905 9.93001 28.5105 9.23001 28.5105 8.51001L28.5005 4.76001C28.5005 4.35001 28.8405 4.01001 29.2505 4.01001C29.6605 4.01001 30.0005 4.34001 30.0005 4.76001L30.0205 8.51001C30.0205 9.55001 29.7005 10.55 29.1005 11.4L19.6805 24.61C19.5305 24.81 19.3005 24.92 19.0605 24.92Z" fill="#CA0B4A"/>
<path d="M14.5205 2.01C9.96047 2.05 6.13047 5.9 6.13047 10.62V12H10.7605C16.0705 12 20.4105 7.76 20.6805 2.53C20.7005 2.24 20.4705 2 20.1905 2L14.5205 2.01Z" fill="#E19747"/>
<path d="M6.24047 17.02C9.37047 17.04 12.0005 19.69 12.0005 22.93V24.01H8.82047C5.17047 24.01 2.19047 20.97 2.00047 17.37C1.99047 17.18 2.14047 17.01 2.34047 17.01L6.24047 17.02Z" fill="#E19747"/>
<path d="M17.2305 4.47004C17.2905 4.56004 17.3205 4.66004 17.3205 4.76004C17.3205 4.92004 17.2505 5.07004 17.1105 5.17004L8.37049 11.4C7.81049 11.8 7.15049 12.01 6.46049 12.01H4.50049C4.22049 12.01 4.00049 11.78 4.00049 11.51C4.00049 11.24 4.22049 11.02 4.50049 11.02H6.46049C6.94049 11.02 7.40049 10.87 7.79049 10.59L16.5405 4.35004C16.7605 4.19004 17.0705 4.25004 17.2305 4.47004Z" fill="#D3883E"/>
<path d="M11.8605 23.01H12.4905C12.7505 23.01 12.9805 23.21 13.0005 23.47C13.0105 23.76 12.7905 24 12.5005 24H11.8605C11.1705 24 10.5105 23.79 9.95049 23.39L5.69049 20.35C5.47049 20.19 5.42049 19.88 5.58049 19.66C5.59049 19.66 5.59049 19.65 5.59049 19.65C5.75049 19.43 6.05049 19.38 6.27049 19.54L10.5305 22.58C10.9205 22.86 11.3805 23.01 11.8605 23.01Z" fill="#D3883E"/>
</svg>

<svg xmlns="http://www.w3.org/2000/svg" width="32" height="32" fill="none"><path fill="#F8312F" d="M27.91 8.01c-7.13 0-12.91 5.78-12.97 12.66l.06 8.57c0 .43.37.77.79.74C23.71 29.57 30 23.03 30 15.01v-7h-2.09Z"/><path fill="#CA0B4A" d="M19.06 24.92a.753.753 0 0 1-.61-1.19l9.42-13.21c.42-.59.64-1.29.64-2.01l-.01-3.75a.749.749 0 1 1 1.5 0l.02 3.75c0 1.04-.32 2.04-.92 2.89l-9.42 13.21c-.15.2-.38.31-.62.31Z"/><path fill="#E19747" d="M14.52 2.01c-4.56.04-8.39 3.89-8.39 8.61V12h4.63c5.31 0 9.65-4.24 9.92-9.47a.495.495 0 0 0-.49-.53l-5.67.01ZM6.24 17.02c3.13.02 5.76 2.67 5.76 5.91v1.08H8.82c-3.65 0-6.63-3.04-6.82-6.64-.01-.19.14-.36.34-.36l3.9.01Z"/><path fill="#D3883E" d="M17.23 4.47c.06.09.09.19.09.29 0 .16-.07.31-.21.41L8.37 11.4c-.56.4-1.22.61-1.91.61H4.5c-.28 0-.5-.23-.5-.5s.22-.49.5-.49h1.96c.48 0 .94-.15 1.33-.43l8.75-6.24c.22-.16.53-.1.69.12ZM11.86 23.01h.63c.26 0 .49.2.51.46.01.29-.21.53-.5.53h-.64c-.69 0-1.35-.21-1.91-.61l-4.26-3.04a.495.495 0 0 1-.11-.69c.01 0 .01-.01.01-.01.16-.22.46-.27.68-.11l4.26 3.04c.39.28.85.43 1.33.43Z"/></svg>
